storage/app/icons/phosphoricons/duotone/git-fork-duotone.svg

<svg xmlns="http://www.w3.org/2000/svg" fill="currentColor" viewBox="0 0 256 256"><path d="M88 64a24 24 0 1 1-24-24 24 24 0 0 1 24 24m104-24a24 24 0 1 0 24 24 24 24 0 0 0-24-24" opacity=".2"/><path d="M224 64a32 32 0 1 0-40 31v17a8 8 0 0 1-8 8H80a8 8 0 0 1-8-8V95a32 32 0 1 0-16 0v17a24 24 0 0 0 24 24h40v25a32 32 0 1 0 16 0v-25h40a24 24 0 0 0 24-24V95a32.06 32.06 0 0 0 24-31M48 64a16 16 0 1 1 16 16 16 16 0 0 1-16-16m96 128a16 16 0 1 1-16-16 16 16 0 0 1 16 16m48-112a16 16 0 1 1 16-16 16 16 0 0 1-16 16"/></svg>

<svg xmlns="http://www.w3.org/2000/svg" viewBox="0 0 256 256" fill="currentColor"><path d="M88,64A24,24,0,1,1,64,40,24,24,0,0,1,88,64ZM192,40a24,24,0,1,0,24,24A24,24,0,0,0,192,40Z" opacity="0.2"/><path d="M224,64a32,32,0,1,0-40,31v17a8,8,0,0,1-8,8H80a8,8,0,0,1-8-8V95a32,32,0,1,0-16,0v17a24,24,0,0,0,24,24h40v25a32,32,0,1,0,16,0V136h40a24,24,0,0,0,24-24V95A32.06,32.06,0,0,0,224,64ZM48,64A16,16,0,1,1,64,80,16,16,0,0,1,48,64Zm96,128a16,16,0,1,1-16-16A16,16,0,0,1,144,192ZM192,80a16,16,0,1,1,16-16A16,16,0,0,1,192,80Z"/></svg>
